svgs/exponential_idle.svg

<svg width="192" height="192" viewBox="0 0 192 192" fill="none" xmlns="http://www.w3.org/2000/svg">
<path d="M23 123C23 148.405 40.9086 169 63 169C78.3379 169 93.2884 161.366 100 146.793M23 123C23 97.5949 40.9086 77 63 77C85.0914 77 103 97.5949 103 123H23Z" stroke="black" stroke-width="14" stroke-linecap="round" stroke-linejoin="round"/>
<path d="M122 22L144 47.9811M144 47.9811L165.185 73M144 47.9811L122.815 73M144 47.9811L166 22M118 73H133M155 73H170M118 22H133M155 22H170" stroke="black" stroke-width="12" stroke-linecap="round" stroke-linejoin="round"/>
</svg>

<svg xmlns="http://www.w3.org/2000/svg" width="192" height="192" fill="none" viewBox="0 0 192 192"><path stroke="#000" stroke-linecap="round" stroke-linejoin="round" stroke-width="14" d="M23 123c0 25.405 17.909 46 40 46 15.338 0 30.288-7.634 37-22.207M23 123c0-25.405 17.909-46 40-46s40 20.595 40 46z"/><path stroke="#000" stroke-linecap="round" stroke-linejoin="round" stroke-width="12" d="m122 22 22 25.981m0 0L165.185 73M144 47.981 122.815 73M144 47.981 166 22m-48 51h15m22 0h15m-52-51h15m22 0h15"/></svg>
